X: 43049
T: Wind Off The Lake, The
R: jig
M: 6/8
K: Gmajor
|:G2B BAB|G2B BAG|FAA [A2A2]D|FAA [A2A2]D|
G2B BAB|G2B BAB|def gdB|1 AGG G3:|2 AGG G2g||
|:aba agf|gag gfe|~d3 gdB|BAA A2a|
aba agf|gag gfe|~d3 gdB|1 AGG G2a:|2 AGG G3||

